assets/icons/qvision/perm_identity.svg

<svg xmlns="http://www.w3.org/2000/svg" height="24" viewBox="0 0 24 24" width="24"><path d="M0 0h24v24H0z" fill="none"/><path d="M12 5.9c1.16 0 2.1.94 2.1 2.1s-.94 2.1-2.1 2.1S9.9 9.16 9.9 8s.94-2.1 2.1-2.1m0 9c2.97 0 6.1 1.46 6.1 2.1v1.1H5.9V17c0-.64 3.13-2.1 6.1-2.1M12 4C9.79 4 8 5.79 8 8s1.79 4 4 4 4-1.79 4-4-1.79-4-4-4zm0 9c-2.67 0-8 1.34-8 4v3h16v-3c0-2.66-5.33-4-8-4z"/></svg>

<svg width="24" height="24" viewBox="0 0 24 24" fill="none" xmlns="http://www.w3.org/2000/svg">
<g clip-path="url(#clip0_147_4536)">
<path d="M12 5.9C13.16 5.9 14.1 6.84 14.1 8C14.1 9.16 13.16 10.1 12 10.1C10.84 10.1 9.9 9.16 9.9 8C9.9 6.84 10.84 5.9 12 5.9ZM12 14.9C14.97 14.9 18.1 16.36 18.1 17V18.1H5.9V17C5.9 16.36 9.03 14.9 12 14.9ZM12 4C9.79 4 8 5.79 8 8C8 10.21 9.79 12 12 12C14.21 12 16 10.21 16 8C16 5.79 14.21 4 12 4ZM12 13C9.33 13 4 14.34 4 17V20H20V17C20 14.34 14.67 13 12 13Z" fill="#323232"/>
</g>
<defs>
<clipPath id="clip0_147_4536">
<rect width="24" height="24" fill="white"/>
</clipPath>
</defs>
</svg>
